X:71
T: Nachtigall als Warnerin
N: Q0137F
O: Mitteleuropa, Deutschland (BRD) , Hessen, Nassau
R: Ballade, Allegorie; lyrisch ()
M: 4/4
L: 1/8
K: C
G2 | G2GGG2G2 | c2c2G2
G2 | A2c2B2d2 | d4c2
G2 | e2e2e2e2 | g2g2f2
d2 | g2g2g2f2 | f4e2
